X:937
T:Reel 937
M:4/4
K:Amin
L:1/8
A,B,|CA,A,G, E,2A,B,|CA,B,C DB,G,B,|CA,B,G, E,A,A,B,|CA,B,G, A,G,E,G,|E,A,A,B, C2A,B,|C2B,D CA,E,G,|A,B,A,B, CDED|CA,B,G, A,2|CD|EAAG E2ED|EAAB cABA|EDEF G2GA|BGAF GFED|EA,A,B, A,B,CD|EAAF GEFD|EDCB, CDEA|GEDB, A,2|
